src/images/svg/symbols/markets-stocks-and-indices/american-stocks/stocks-cisco-systems.svg

<svg width="32" height="32" viewBox="0 0 32 32" fill="none" xmlns="http://www.w3.org/2000/svg">
<path d="M0 16C0 7.16344 7.16344 0 16 0V0C24.8366 0 32 7.16344 32 16V16C32 24.8366 24.8366 32 16 32V32C7.16344 32 0 24.8366 0 16V16Z" fill="#00A7E0"/>
<path d="M10.6327 10.1537C10.7312 10.2522 10.7865 10.3857 10.7865 10.5249V16.0591C10.7865 16.1983 10.7312 16.3318 10.6327 16.4302C10.5343 16.5287 10.4008 16.584 10.2615 16.584C10.1223 16.584 9.98881 16.5287 9.89037 16.4302C9.79193 16.3318 9.73663 16.1983 9.73663 16.0591V10.5249C9.73663 10.3857 9.79193 10.2522 9.89037 10.1537C9.98881 10.0553 10.1223 10 10.2615 10C10.4008 10 10.5343 10.0553 10.6327 10.1537Z" fill="white"/>
<path d="M7.9144 12.4896C7.89909 12.3622 7.8376 12.2447 7.74156 12.1595C7.64553 12.0744 7.52161 12.0273 7.39324 12.0273C7.26486 12.0273 7.14094 12.0744 7.04491 12.1595C6.94887 12.2447 6.88738 12.3622 6.87207 12.4896V15.0242C6.88738 15.1517 6.94887 15.2691 7.04491 15.3543C7.14094 15.4395 7.26486 15.4865 7.39324 15.4865C7.52161 15.4865 7.64553 15.4395 7.74156 15.3543C7.8376 15.2691 7.89909 15.1517 7.9144 15.0242V12.4896Z" fill="white"/>
<path d="M4.89125 13.5608C4.98808 13.6591 5.04235 13.7915 5.04234 13.9294V15.0242C5.02702 15.1517 4.96553 15.2691 4.8695 15.3543C4.77346 15.4395 4.64954 15.4865 4.52117 15.4865C4.3928 15.4865 4.26888 15.4395 4.17284 15.3543C4.07681 15.2691 4.01532 15.1517 4 15.0242V13.9294C4 13.7902 4.0553 13.6567 4.15375 13.5582C4.25219 13.4598 4.3857 13.4045 4.52492 13.4045C4.66283 13.4064 4.79443 13.4626 4.89125 13.5608Z" fill="white"/>
<path d="M15.8332 19.3285C15.5642 19.2535 15.2873 19.2107 15.0083 19.2011C14.5884 19.2011 14.3559 19.3435 14.3559 19.5385C14.3559 19.7335 14.6633 19.8835 14.8358 19.936L15.1283 20.0334C15.4045 20.0908 15.6533 20.2397 15.8343 20.4561C16.0154 20.6725 16.118 20.9437 16.1256 21.2258C16.1256 22.2681 15.2033 22.6205 14.3934 22.6205C14.0132 22.619 13.6341 22.5813 13.2611 22.5081V21.5782C13.5829 21.6731 13.9156 21.726 14.2509 21.7357C14.7758 21.7357 15.0008 21.5782 15.0008 21.3457C15.0008 21.1133 14.7983 21.0083 14.5359 20.9333L14.3109 20.8583C13.726 20.6708 13.2386 20.3259 13.2386 19.636C13.2386 18.9461 13.816 18.3312 14.7908 18.3312C15.1373 18.3375 15.4819 18.3827 15.8182 18.4662L15.8332 19.3285Z" fill="white"/>
<path fill-rule="evenodd" clip-rule="evenodd" d="M25.4908 21.7297C25.7267 21.3603 25.847 20.929 25.8366 20.4909C25.8377 20.2035 25.7811 19.9188 25.67 19.6537C25.5589 19.3887 25.3957 19.1486 25.1901 18.9479C24.9844 18.7471 24.7405 18.5897 24.4729 18.4851C24.2052 18.3804 23.9192 18.3307 23.632 18.3387C23.1937 18.3388 22.7654 18.4696 22.4018 18.7142C22.0382 18.9589 21.7558 19.3063 21.5906 19.7122C21.4254 20.1182 21.3849 20.5641 21.4743 20.9931C21.5637 21.4222 21.7789 21.8148 22.0925 22.121C22.4061 22.4271 22.8039 22.6328 23.2349 22.7119C23.666 22.7909 24.1108 22.7397 24.5126 22.5647C24.9145 22.3898 25.255 22.0991 25.4908 21.7297ZM23.0147 19.575C23.1981 19.4554 23.413 19.3931 23.632 19.396C23.7757 19.395 23.9181 19.4227 24.051 19.4775C24.1839 19.5322 24.3045 19.6129 24.4057 19.7149C24.507 19.8169 24.5869 19.938 24.6407 20.0713C24.6946 20.2045 24.7213 20.3472 24.7193 20.4909C24.7208 20.7098 24.657 20.9243 24.5361 21.1069C24.4152 21.2894 24.2427 21.4319 24.0405 21.516C23.8383 21.6001 23.6157 21.6221 23.401 21.5792C23.1862 21.5363 22.9891 21.4304 22.8348 21.275C22.6805 21.1197 22.576 20.9219 22.5346 20.7069C22.4931 20.4918 22.5167 20.2694 22.6022 20.0678C22.6877 19.8662 22.8313 19.6946 23.0147 19.575Z" fill="white"/>
<path d="M9.33915 19.606C9.06795 19.4574 8.76351 19.3801 8.45429 19.381C8.15597 19.381 7.86986 19.4995 7.65892 19.7105C7.44797 19.9214 7.32946 20.2075 7.32946 20.5059C7.32946 20.8042 7.44797 21.0903 7.65892 21.3012C7.86986 21.5122 8.15597 21.6307 8.45429 21.6307C8.76332 21.6301 9.06736 21.5528 9.33915 21.4057V22.523C9.02948 22.6249 8.70528 22.6755 8.3793 22.673C8.08549 22.6904 7.79123 22.6475 7.5146 22.547C7.23797 22.4464 6.9848 22.2905 6.77064 22.0886C6.55648 21.8867 6.38585 21.6431 6.26922 21.3729C6.15259 21.1027 6.09243 20.8114 6.09243 20.5171C6.09243 20.2228 6.15259 19.9316 6.26922 19.6613C6.38585 19.3911 6.55648 19.1476 6.77064 18.9457C6.9848 18.7438 7.23797 18.5878 7.5146 18.4873C7.79123 18.3868 8.08549 18.3439 8.3793 18.3612C8.70425 18.3647 9.0272 18.4126 9.33915 18.5037V19.606Z" fill="white"/>
<path d="M19.4401 19.381C19.7493 19.3801 20.0538 19.4574 20.325 19.606V18.5037C20.0129 18.4133 19.69 18.3654 19.3651 18.3612C19.0713 18.3439 18.777 18.3868 18.5004 18.4873C18.2238 18.5878 17.9706 18.7438 17.7564 18.9457C17.5423 19.1476 17.3717 19.3911 17.255 19.6613C17.1384 19.9316 17.0782 20.2228 17.0782 20.5171C17.0782 20.8114 17.1384 21.1027 17.255 21.3729C17.3717 21.6431 17.5423 21.8867 17.7564 22.0886C17.9706 22.2905 18.2238 22.4464 18.5004 22.547C18.777 22.6475 19.0713 22.6904 19.3651 22.673C19.6909 22.6735 20.0148 22.6229 20.325 22.523V21.4057C20.0532 21.5528 19.7491 21.6301 19.4401 21.6307C19.1418 21.6307 18.8557 21.5122 18.6447 21.3012C18.4338 21.0903 18.3153 20.8042 18.3153 20.5059C18.3153 20.2075 18.4338 19.9214 18.6447 19.7105C18.8557 19.4995 19.1418 19.381 19.4401 19.381Z" fill="white"/>
<path d="M10.7864 18.4062H11.8363V22.5755H10.7864V18.4062Z" fill="white"/>
<path d="M13.651 12.4896C13.6357 12.3622 13.5742 12.2447 13.4781 12.1595C13.3821 12.0744 13.2582 12.0273 13.1298 12.0273C13.0014 12.0273 12.8775 12.0744 12.7815 12.1595C12.6855 12.2447 12.624 12.3622 12.6086 12.4896V15.0242C12.624 15.1517 12.6855 15.2691 12.7815 15.3543C12.8775 15.4395 13.0014 15.4865 13.1298 15.4865C13.2582 15.4865 13.3821 15.4395 13.4781 15.3543C13.5742 15.2691 13.6357 15.1517 13.651 15.0242V12.4896Z" fill="white"/>
<path d="M16.364 13.5635C16.461 13.6606 16.5156 13.7922 16.5156 13.9294V15.0242C16.5156 15.1614 16.461 15.2931 16.364 15.3901C16.267 15.4871 16.1354 15.5416 15.9981 15.5416C15.8609 15.5416 15.7293 15.4871 15.6323 15.3901C15.5352 15.2931 15.4807 15.1614 15.4807 15.0242V13.9294C15.4807 13.7922 15.5352 13.6606 15.6323 13.5635C15.7293 13.4665 15.8609 13.412 15.9981 13.412C16.1354 13.412 16.267 13.4665 16.364 13.5635Z" fill="white"/>
<path d="M19.3876 12.4896C19.3723 12.3622 19.3108 12.2447 19.2148 12.1595C19.1187 12.0744 18.9948 12.0273 18.8664 12.0273C18.7381 12.0273 18.6141 12.0744 18.5181 12.1595C18.4221 12.2447 18.3606 12.3622 18.3453 12.4896V15.0242C18.3606 15.1517 18.4221 15.2691 18.5181 15.3543C18.6141 15.4395 18.7381 15.4865 18.8664 15.4865C18.9948 15.4865 19.1187 15.4395 19.2148 15.3543C19.3108 15.2691 19.3723 15.1517 19.3876 15.0242V12.4896Z" fill="white"/>
<path d="M22.0868 10.1949C22.1829 10.28 22.2444 10.3975 22.2597 10.5249V16.0591C22.2685 16.1327 22.2617 16.2075 22.2395 16.2783C22.2174 16.3492 22.1804 16.4145 22.1312 16.47C22.0819 16.5255 22.0215 16.57 21.9538 16.6004C21.8861 16.6309 21.8127 16.6466 21.7385 16.6466C21.6643 16.6466 21.5909 16.6309 21.5232 16.6004C21.4555 16.57 21.3951 16.5255 21.3458 16.47C21.2966 16.4145 21.2596 16.3492 21.2375 16.2783C21.2154 16.2075 21.2085 16.1327 21.2173 16.0591V10.5249C21.2327 10.3975 21.2941 10.28 21.3902 10.1949C21.4862 10.1097 21.6101 10.0626 21.7385 10.0626C21.8669 10.0626 21.9908 10.1097 22.0868 10.1949Z" fill="white"/>
<path d="M25.1317 12.4896C25.1317 12.3504 25.0764 12.2169 24.978 12.1184C24.8795 12.02 24.746 11.9647 24.6068 11.9647C24.4676 11.9647 24.3341 12.02 24.2356 12.1184C24.1372 12.2169 24.0819 12.3504 24.0819 12.4896V15.0242C24.0819 15.1634 24.1372 15.2969 24.2356 15.3954C24.3341 15.4938 24.4676 15.5491 24.6068 15.5491C24.746 15.5491 24.8795 15.4938 24.978 15.3954C25.0764 15.2969 25.1317 15.1634 25.1317 15.0242V12.4896Z" fill="white"/>
<path d="M27.9761 13.7101C27.9982 13.781 28.0051 13.8557 27.9963 13.9294V15.0242C27.9809 15.1517 27.9194 15.2691 27.8234 15.3543C27.7274 15.4395 27.6035 15.4865 27.4751 15.4865C27.3467 15.4865 27.2228 15.4395 27.1268 15.3543C27.0307 15.2691 26.9692 15.1517 26.9539 15.0242V13.9294C26.9451 13.8557 26.9519 13.781 26.9741 13.7101C26.9962 13.6393 27.0331 13.574 27.0824 13.5184C27.1316 13.4629 27.1921 13.4185 27.2598 13.388C27.3275 13.3576 27.4009 13.3418 27.4751 13.3418C27.5493 13.3418 27.6227 13.3576 27.6904 13.388C27.7581 13.4185 27.8185 13.4629 27.8678 13.5184C27.917 13.574 27.9539 13.6393 27.9761 13.7101Z" fill="white"/>
<path d="M27.3963 22.0281V22.0956H27.2089V22.5755H27.1339V22.0956H26.9464V22.0281H27.3963Z" fill="white"/>
<path d="M27.5538 22.0281H27.4339V22.5755H27.5088V22.1256H27.5163L27.6738 22.5755H27.7488L27.9138 22.1256V22.5755H27.9963V22.0281H27.8763L27.7188 22.4781L27.5538 22.0281Z" fill="white"/>
</svg>

<svg width="32" height="32" fill="none" xmlns="http://www.w3.org/2000/svg"><path d="M0 16C0 7.163 7.163 0 16 0s16 7.163 16 16-7.163 16-16 16S0 24.837 0 16Z" fill="#00A7E0"/><path d="M10.633 10.154a.525.525 0 0 1 .154.37v5.535a.525.525 0 1 1-1.05 0v-5.534a.525.525 0 0 1 .896-.371ZM7.914 12.49a.525.525 0 0 0-1.042 0v2.534a.525.525 0 0 0 1.042 0V12.49ZM4.891 13.56c.097.1.151.231.151.37v1.094a.525.525 0 0 1-1.042 0V13.93a.525.525 0 0 1 .525-.524c.138.001.27.058.366.156ZM15.833 19.328a3.523 3.523 0 0 0-.825-.127c-.42 0-.652.142-.652.337 0 .195.307.346.48.398l.292.097a1.253 1.253 0 0 1 .998 1.193c0 1.042-.923 1.395-1.733 1.395-.38-.002-.759-.04-1.132-.113v-.93c.322.095.655.148.99.158.525 0 .75-.158.75-.39 0-.233-.203-.338-.465-.413l-.225-.075c-.585-.187-1.072-.532-1.072-1.222s.577-1.305 1.552-1.305c.346.006.69.052 1.027.135l.015.862Z" fill="#fff"/><path fill-rule="evenodd" clip-rule="evenodd" d="M25.49 21.73c.237-.37.357-.801.347-1.24a2.145 2.145 0 0 0-2.205-2.151 2.205 2.205 0 1 0 1.859 3.39Zm-2.475-2.155c.183-.12.398-.182.617-.179a1.08 1.08 0 0 1 1.087 1.095 1.102 1.102 0 1 1-1.704-.916Z" fill="#fff"/><path d="M9.34 19.606a1.83 1.83 0 0 0-.886-.225 1.125 1.125 0 1 0 0 2.25c.31 0 .613-.078.885-.225v1.117c-.31.102-.634.152-.96.15a2.159 2.159 0 1 1 0-4.312c.325.004.648.052.96.143v1.102ZM19.44 19.381c.31 0 .614.076.885.225v-1.102a3.618 3.618 0 0 0-.96-.143 2.16 2.16 0 1 0 0 4.312c.326 0 .65-.05.96-.15v-1.117a1.867 1.867 0 0 1-.885.225 1.125 1.125 0 0 1 0-2.25ZM10.786 18.406h1.05v4.17h-1.05v-4.17ZM13.651 12.49a.525.525 0 0 0-1.042 0v2.534a.526.526 0 0 0 1.042 0V12.49ZM16.364 13.563a.518.518 0 0 1 .152.366v1.095a.518.518 0 0 1-1.035 0V13.93a.517.517 0 0 1 .883-.366ZM19.388 12.49a.525.525 0 0 0-1.043 0v2.534a.525.525 0 0 0 1.043 0V12.49ZM22.087 10.195a.524.524 0 0 1 .173.33v5.534a.525.525 0 1 1-1.043 0v-5.534a.525.525 0 0 1 .87-.33ZM25.132 12.49a.525.525 0 0 0-1.05 0v2.534a.525.525 0 0 0 1.05 0V12.49ZM27.976 13.71c.022.071.03.146.02.22v1.094a.526.526 0 0 1-1.042 0V13.93a.525.525 0 0 1 1.022-.219ZM27.396 22.028v.068h-.187v.48h-.075v-.48h-.188v-.068h.45ZM27.554 22.028h-.12v.548h.075v-.45h.007l.158.45h.075l.165-.45v.45h.082v-.548h-.12l-.157.45-.165-.45Z" fill="#fff"/></svg>
